%
(Header)
(Generated by gcodetools from Inkscape.)
(Using default header. To add your own header create file "header" in the output dir.)
(Header end.)
G21 (All units in mm)

(Start cutting path id: path4094)
(Change tool to Default tool)

(First round)
G00 X-0.959583 Y-0.986529
M3
G01 X-1.032464 Y-69.567160 Z-0.125000 F20.000000
G01 X-21.657668 Y-69.567160 Z-0.125000
G01 X-21.657668 Y-23.336674 Z-0.125000
G01 X-10.968418 Y-20.375096 Z-0.125000
G03 X-8.751183 Y-19.131242 Z-0.125000 I-1.988821 J6.143278
G03 X-7.065522 Y-16.916766 Z-0.125000 I-4.332477 J5.046686
G03 X-6.583813 Y-15.292351 Z-0.125000 I-5.078243 J2.389551
G03 X-6.673419 Y-13.869778 Z-0.125000 I-3.559783 J0.489882
G01 X-7.224693 Y-11.527393 Z-0.125000
G01 X-21.657668 Y-15.388611 Z-0.125000
G01 X-21.754750 Y-7.206450 Z-0.125000
G01 X-0.959583 Y-0.986529 Z-0.125000
G01 X-0.959583 Y-0.986529 Z-0.125000
M5
(End cutting path id: path4094)

(Second round)
G00 X-0.959583 Y-0.986529
M3
G01 X-1.032464 Y-69.567160 Z-0.125000 F20.000000
G01 X-21.657668 Y-69.567160 Z-0.125000
G01 X-21.657668 Y-23.336674 Z-0.125000
G01 X-10.968418 Y-20.375096 Z-0.125000
G03 X-8.751183 Y-19.131242 Z-0.125000 I-1.988821 J6.143278
G03 X-7.065522 Y-16.916766 Z-0.125000 I-4.332477 J5.046686
G03 X-6.583813 Y-15.292351 Z-0.125000 I-5.078243 J2.389551
G03 X-6.673419 Y-13.869778 Z-0.125000 I-3.559783 J0.489882
G01 X-7.224693 Y-11.527393 Z-0.125000
G01 X-21.657668 Y-15.388611 Z-0.125000
G01 X-21.754750 Y-7.206450 Z-0.125000
G01 X-0.959583 Y-0.986529 Z-0.125000
G01 X-0.959583 Y-0.986529 Z-0.125000
M5
(End cutting path id: path4094)

(Third round)
G00 X-0.959583 Y-0.986529
M3
G01 X-1.032464 Y-69.567160 Z-0.125000 F20.000000
G01 X-21.657668 Y-69.567160 Z-0.125000
G01 X-21.657668 Y-23.336674 Z-0.125000
G01 X-10.968418 Y-20.375096 Z-0.125000
G03 X-8.751183 Y-19.131242 Z-0.125000 I-1.988821 J6.143278
G03 X-7.065522 Y-16.916766 Z-0.125000 I-4.332477 J5.046686
G03 X-6.583813 Y-15.292351 Z-0.125000 I-5.078243 J2.389551
G03 X-6.673419 Y-13.869778 Z-0.125000 I-3.559783 J0.489882
G01 X-7.224693 Y-11.527393 Z-0.125000
G01 X-21.657668 Y-15.388611 Z-0.125000
G01 X-21.754750 Y-7.206450 Z-0.125000
G01 X-0.959583 Y-0.986529 Z-0.125000
G01 X-0.959583 Y-0.986529 Z-0.125000
M5
(End cutting path id: path4094)


(Footer)
M5
G00 X0.0000 Y0.0000
M2
(Using default footer. To add your own footer create file "footer" in the output dir.)
(end)
%
